img/menu/clock.svg

<?xml version="1.0" encoding="iso-8859-1"?>
<!-- Generator: Adobe Illustrator 19.0.0, SVG Export Plug-In . SVG Version: 6.00 Build 0)  -->
<svg version="1.1" id="Layer_1" xmlns="http://www.w3.org/2000/svg" xmlns:xlink="http://www.w3.org/1999/xlink" x="0px" y="0px"
	 viewBox="0 0 489 489" style="enable-background:new 0 0 489 489;" xml:space="preserve">
<g>
	<g>
		<path d="M244.5,0C109.3,0,0,109.3,0,244.5S109.3,489,244.5,489S489,379.8,489,244.5S379.8,0,244.5,0z M265.3,447.4V437
			c0-11.4-9.4-20.8-20.8-20.8s-20.8,9.4-20.8,20.8v10.4c-95.8-9.8-172.3-86.3-182-182H51c11.4,0,20.8-9.4,20.8-20.8
			s-9.4-20.8-20.8-20.8h-9.3c9.8-95.8,86.3-172.3,182-182V51c0,11.4,9.4,20.8,20.8,20.8s20.8-9.4,20.8-20.8v-9.3
			c95.8,9.8,172.3,86.3,182,182H437c-11.4,0-20.8,9.4-20.8,20.8s9.4,20.8,20.8,20.8h10.4C437.6,361.1,361.1,437.6,265.3,447.4z"/>
		<path d="M244.5,124.9c-11.4,0-20.8,9.4-20.8,20.8v91.5L129,353.8c-7.3,9.4-5.2,21.8,3.1,29.1c11.6,8.5,23.9,2.1,28.1-3.1
			l101-122.8c2.1-3.1,4.2-7.3,4.2-12.5v-98.8C265.3,134.2,256,124.9,244.5,124.9z"/>
	</g>
</g>
<g>
</g>
<g>
</g>
<g>
</g>
<g>
</g>
<g>
</g>
<g>
</g>
<g>
</g>
<g>
</g>
<g>
</g>
<g>
</g>
<g>
</g>
<g>
</g>
<g>
</g>
<g>
</g>
<g>
</g>
</svg>

<?xml version="1.0" encoding="utf-8"?>
<svg version="1.1" id="Layer_1" x="0px" y="0px" viewBox="0 0 489 489" style="enable-background:new 0 0 489 489;" xmlns="http://www.w3.org/2000/svg">
  <path d="M 244.5 0 C 109.3 0 0 109.3 0 244.5 C 0 379.7 109.3 489 244.5 489 C 379.7 489 489 379.8 489 244.5 C 489 109.2 379.8 0 244.5 0 Z M 265.3 447.4 L 223.7 447.4 C 127.9 437.6 51.4 361.1 41.7 265.4 L 41.7 223.8 C 51.5 128 128 51.5 223.7 41.8 L 265.3 41.7 C 361.1 51.5 437.6 128 447.3 223.7 L 447.4 265.3 C 437.6 361.1 361.1 437.6 265.3 447.4 Z" style="stroke-width: 0px; stroke-miterlimit: 1;"/>
  <path d="M 244.5 124.9 C 233.1 124.9 223.7 134.3 223.7 145.7 L 223.7 237.2 L 129 353.8 C 121.7 363.2 123.8 375.6 132.1 382.9 C 143.7 391.4 156 385 160.2 379.8 L 261.2 257 C 263.3 253.9 265.4 249.7 265.4 244.5 L 265.4 145.7 C 265.3 134.2 256 124.9 244.5 124.9 Z"/>
</svg>
